!!!OTL: 愛唄
**kern	**text	**kern	**text	**kern	**text	**kern	**text	**kern	**text
*part5	*part5	*part4	*part4	*part3	*part3	*part2	*part2	*part1	*part1
*staff5	*staff5	*staff4	*staff4	*staff3	*staff3	*staff2	*staff2	*staff1	*staff1
*I"ピアノ	*	*I"ピアノ	*	*I"ピアノ	*	*I"ピアノ	*	*I"钢琴	*
*I'Pno.	*	*I'Pno.	*	*I'Pno.	*	*I'Pno.	*	*I'Pno.	*
*clefG2	*	*clefG2	*	*clefG2	*	*clefG2	*	*clefG2	*
*k[b-e-a-d-]	*	*k[b-e-a-d-]	*	*k[b-e-a-d-]	*	*k[b-e-a-d-]	*	*k[b-e-a-d-]	*
*M4/4	*	*M4/4	*	*M4/4	*	*M4/4	*	*M4/4	*
*MM75	*	*MM75	*	*MM75	*	*MM75	*	*MM75	*
=1	=1	=1	=1	=1	=1	=1	=1	=1	=1
2.r	.	2.r	.	2.r	.	2.r	.	2.r	.
8r	.	8r	.	8r	.	8r	.	8r	.
16cLL	た	16e-LL	た	16cLL	た	16gLL	た	16GLL	た
16cJJ	だ	16e-JJ	だ	16cJJ	だ	16gJJ	だ	16GJJ	だ
=2	=2	=2	=2	=2	=2	=2	=2	=2	=2
8cL	ない	8a-L	ない	8fL	ない	8ccL	ない	8cL	ない
8d-	て	8b-	て	8g	て	8dd-	て	8d-	て
8cJ	わ	8ccJ	わ	8a-J	わ	8ee-J	わ	8e-J	わ
4A-	らっ	4f	らっ	4d-	らっ	4a-	らっ	4A-	らっ
4A-	て	4a-	て	4f	て	4cc	て	4c	て
8A-	す	8a-	す	8f	す	8cc	す	8c	す
=3	=3	=3	=3	=3	=3	=3	=3	=3	=3
8e-L	ご	8gL	ご	8e-L	ご	8b-L	ご	8B-L	ご
8e-J	す	8a-J	す	8fJ	す	8ccJ	す	8cJ	す
8d-L	ひ	8gL	ひ	8e-L	ひ	8b-L	ひ	8B-L	ひ
16d-L	び	16fL	び	16d-L	び	16a-L	び	16A-L	び
16d-JJ	に	16fJJ	に	16d-JJ	に	16a-JJ	に	16A-JJ	に
4c	.	4e-	.	4c	.	4g	.	4G	.
8r	.	8r	.	8r	.	8r	.	8r	.
8c	と	8e-	と	8c	と	8g	と	8G	と
=4	=4	=4	=4	=4	=4	=4	=4	=4	=4
8cL	な	8a-L	な	8fL	な	8ccL	な	8cL	な
8d-	り	8b-	り	8g	り	8dd-	り	8d-	り
8cJ	に	8ccJ	に	8a-J	に	8ee-J	に	8e-J	に
4d-	たっ	4f	た	4d-	た	4a-	た	4A-	た
4c	て	4a-	って	4f	って	4cc	って	4c	って
8c	い	8a-	い	8f	い	8cc	い	8c	い
=5	=5	=5	=5	=5	=5	=5	=5	=5	=5
8d-L	れ	8b-L	れ	8gL	れ	8dd-L	れ	8d-L	れ
8cJ	る	8a-J	る	8fJ	る	8ccJ	る	8cJ	る
8d-L	こ	8b-L	こ	8gL	こ	8dd-L	こ	8d-L	こ
16d-K	と	16b-K	と	16gK	と	16dd-K	と	16d-K	と
8.e-	で	8.cc	で	8.a-	で	8.ee-	で	8.e-	で
24d-L	.	24b-L	.	24a-L	.	24dd-L	.	24d-L	.
24e-	.	24cc	.	24b-	.	24ee-	.	24e-	.
24d-JJ	.	24b-JJ	.	24a-JJ	.	24dd-JJ	.	24d-JJ	.
8c	.	8a-L	.	8e-L	.	8ccL	.	8cL	.
8r	.	8e-J	ぼ	8cJ	ぼ	8gJ	ぼ	8GJ	ぼ
=6	=6	=6	=6	=6	=6	=6	=6	=6	=6
4.f	Oh	8a-L	く	8fL	く	8ccL	く	8cL	く
.	.	8b-	が	8g	が	8dd-	が	8d-	が
.	.	8ccJ	い	8a-J	い	8ee-J	い	8e-J	い
4d-	.	4f	き	4d-	き	4a-	き	4A-	き
4.c	.	4a-	る	4f	る	4cc	る	4c	る
.	.	8a-	い	8f	い	8cc	い	8c	い
=7	=7	=7	=7	=7	=7	=7	=7	=7	=7
4.e-	.	8gL	み	8e-L	み	8b-L	み	8B-L	み
.	.	8a-J	に	8fJ	に	8ccJ	に	8cJ	に
.	.	8gL	な	8e-L	な	8b-L	な	8B-L	な
8r	.	16fL	っ	16d-L	っ	16a-L	っ	16A-L	っ
.	.	16fJJ	て	16d-JJ	て	16a-JJ	て	16A-JJ	て
4c	wo	4e-	.	4c	.	4g	.	4G	.
4c	wo	8r	.	8r	.	8r	.	8r	.
.	.	8e-	き	8c	き	8g	き	8G	き
=8	=8	=8	=8	=8	=8	=8	=8	=8	=8
4.f	Ah	8a-L	み	8fL	み	8ccL	み	8cL	み
.	.	8b-	に	8g	に	8dd-	に	8d-	に
.	.	8ccJ	さ	8a-J	さ	8ee-J	さ	8e-J	さ
4d-	.	4f	さ	4d-	さ	4a-	さ	4A-	さ
4d-	.	4a-	ぐ	4f	ぐ	4cc	ぐ	4c	ぐ
16d-LL	こ	16a-LL	こ	16fLL	こ	16ccLL	こ	16cLL	こ
16d-JJ	の	16a-JJ	の	16fJJ	の	16ccJJ	の	16cJJ	の
=9	=9	=9	=9	=9	=9	=9	=9	=9	=9
8d-L	あ	8b-L	あ	8gL	あ	8dd-L	あ	8d-L	あ
8cJ	い	8a-J	い	8fJ	い	8ccJ	い	8cJ	い
8B-L	の	8gL	の	8e-L	の	8b-L	の	8B-L	の
16gK	う	16b-K	う	16e-K	う	16dd-K	う	16d-K	う
8.gJ	た	8.b-J	た	8.e-J	た	8.dd-J	た	8.d-J	た
[4.e-	.	[4.a-	.	[4.c	.	[4.cc	.	[4.c	.
=10	=10	=10	=10	=10	=10	=10	=10	=10	=10
*MM85	*	*MM85	*	*MM85	*	*MM85	*	*MM85	*
2e-]	.	2a-]	.	2c]	.	2cc]	.	2c]	.
2r	.	4r	.	2r	.	2r	.	4r	.
.	.	8r	.	.	.	.	.	8r	.
.	.	16.cLL	ね	.	.	.	.	16.cLL	ね
.	.	32d-JJk	え	.	.	.	.	32d-JJk	え
=11	=11	=11	=11	=11	=11	=11	=11	=11	=11
2A-	.	16.e-LL	だ	2c	hu	2e-	hu	16.e-LL	だ
.	.	32cK	い	.	.	.	.	32cK	い
.	.	16.e-	す	.	.	.	.	16.e-	す
.	.	32cJJk	き	.	.	.	.	32cJJk	き
.	.	16.e-LL	な	.	.	.	.	16.e-LL	な
.	.	32e-K	き	.	.	.	.	32e-K	き
.	.	16.f	み	.	.	.	.	16.f	み
.	.	[32e-JJk	へ	.	.	.	.	[32e-JJk	へ
2d-	.	4e-]	.	2d-	.	2f	.	4e-]	.
.	.	16.r	.	.	.	.	.	16.r	.
.	.	32cKLL	わ	.	.	.	.	32cKLL	わ
.	.	16.c	ら	.	.	.	.	16.c	ら
.	.	32d-JJk	わ	.	.	.	.	32d-JJk	わ
=12	=12	=12	=12	=12	=12	=12	=12	=12	=12
2B-	.	16.e-LL	な	2B-	.	2e-	.	16.e-LL	な
.	.	32cK	い	.	.	.	.	32cK	い
.	.	16.e-	で	.	.	.	.	16.e-	で
.	.	32cJJk	き	.	.	.	.	32cJJk	き
.	.	16.e-LL	い	.	.	.	.	16.e-LL	い
.	.	32e-K	て	.	.	.	.	32e-K	て
.	.	16.f	く	.	.	.	.	16.f	く
.	.	[32e-JJk	れ	.	.	.	.	[32e-JJk	れ
2c	.	4e-]	.	2f	.	2f	.	4e-]	.
.	.	8r	.	.	.	.	.	8r	.
.	.	16.B-LL	あ	.	.	.	.	16.B-LL	あ
.	.	32cJJk	い	.	.	.	.	32cJJk	い
=13	=13	=13	=13	=13	=13	=13	=13	=13	=13
2d-	.	8d-L	し	2d-	.	2f	.	8d-L	し
.	.	8cJ	て	.	.	.	.	8cJ	て
.	.	8B-L	る	.	.	.	.	8B-L	る
.	.	16.A-L	だ	.	.	.	.	16.A-L	だ
.	.	[32d-JJk	な	.	.	.	.	[32d-JJk	な
2B-	.	8d-L]	.	2e-	.	2e-	.	8d-L]	.
.	.	8cJ	ん	.	.	.	.	8cJ	ん
.	.	8B-L	て	.	.	.	.	8B-L	て
.	.	16.A-L	く	.	.	.	.	16.A-L	く
.	.	[32d-JJk	さ	.	.	.	.	[32d-JJk	さ
=14	=14	=14	=14	=14	=14	=14	=14	=14	=14
2B-	.	8d-L]	.	2d-	.	2f	.	8d-L]	.
.	.	8cJ	い	.	.	.	.	8cJ	い
.	.	8B-L	け	.	.	.	.	8B-L	け
.	.	16.cL	ど	.	.	.	.	16.cL	ど
.	.	32cJJk	ね	.	.	.	.	32cJJk	ね
8e-	.	8B-	.	8e-	tun	8g	tun	8B-	.
8r	.	16.r	.	8r	.	8r	.	16.r	.
.	.	32A-	だ	.	.	.	.	32A-	だ
4A-	.	8A-L	け	4e-	hu	4g	hu	8A-L	け
.	.	8B-J	ど	.	.	.	.	8B-J	ど
=15	=15	=15	=15	=15	=15	=15	=15	=15	=15
2A-	.	16.e-LL	こ	4r	.	4r	.	16.e-LL	こ
.	.	32cK	の	.	.	.	.	32cK	の
.	.	16.e-	こ	.	.	.	.	16.e-	こ
.	.	32cJJk	と	.	.	.	.	32cJJk	と
.	.	[16.e-LL	ば	4c	tun	4e-	tun	[16.e-LL	ば
.	.	32e-K]	.	.	.	.	.	32e-K]	.
.	.	16.f	い	.	.	.	.	16.f	い
.	.	32fJJk	が	.	.	.	.	32fJJk	が
2d-	.	4e-	い	4r	.	4r	.	4e-	い
.	.	16.r	.	4f	tun	4a-	tun	16.r	.
.	.	32cKLL	つ	.	.	.	.	32cKLL	つ
.	.	16.c	た	.	.	.	.	16.c	た
.	.	32d-JJk	え	.	.	.	.	32d-JJk	え
=16	=16	=16	=16	=16	=16	=16	=16	=16	=16
2B-	.	16.e-LL	る	4r	.	4r	.	16.e-LL	る
.	.	32cK	こ	.	.	.	.	32cK	こ
.	.	16.e-	と	.	.	.	.	16.e-	と
.	.	32cJJk	が	.	.	.	.	32cJJk	が
.	.	[16.e-LL	で	4c	tun	4e-	woo	[16.e-LL	で
.	.	32e-K]	.	.	.	.	.	32e-K]	.
.	.	16.f	き	.	.	.	.	16.f	き
.	.	[16.f	な	.	.	.	.	[16.f	な
4c	.	.	.	4r	.	4a-	.	.	.
.	.	16fJ]	.	.	.	.	.	16fJ]	.
.	.	8e-J	い	.	.	.	.	8e-J	い
4e-	.	8r	.	4c	tun	4g	.	8r	.
.	.	16.B-LL	ほ	.	.	.	.	16.B-LL	ほ
.	.	32cJJk	ら	.	.	.	.	32cJJk	ら
=17	=17	=17	=17	=17	=17	=17	=17	=17	=17
2d-	.	8d-L	ね	4r	.	4r	.	8d-L	ね
.	.	8cJ	ま	.	.	.	.	8cJ	ま
.	.	8B-L	た	4f	tun	4a-	tun	8B-L	た
.	.	16.A-L	ば	.	.	.	.	16.A-L	ば
.	.	[32d-JJk	か	.	.	.	.	[32d-JJk	か
2c	.	8d-L]	.	4r	.	4r	.	8d-L]	.
.	.	8cJ	に	.	.	.	.	8cJ	に
.	.	8B-L	し	4e-	tun	4g	tun	8B-L	し
.	.	16.A-L	て	.	.	.	.	16.A-L	て
.	.	32A-JJk	わ	.	.	.	.	32A-JJk	わ
=18	=18	=18	=18	=18	=18	=18	=18	=18	=18
2B-	.	8d-L	ら	2d-	woo	2f	woo	8d-L	ら
.	.	8cJ	っ	.	.	.	.	8cJ	っ
.	.	8A-L	た	.	.	.	.	8A-L	た
.	.	16.fL	よ	.	.	.	.	16.fL	よ
.	.	32fJJk	ね	.	.	.	.	32fJJk	ね
2e-	.	8e-	.	4r	.	4a-	wo	8e-	.
.	.	8r	.	.	.	.	.	8r	.
.	.	4r	.	8A-L	き	4a-	wo	8A-L	き
.	.	.	.	8B-J	み	.	.	8B-J	み
=19	=19	=19	=19	=19	=19	=19	=19	=19	=19
4f	.	4r	.	8c	の	4r	.	8c	の
.	.	.	.	8r	.	.	.	8r	.
4f	.	4f	woo	4a-	え	4a-	woo	4a-	え
4c	.	4e-	.	8gL	ら	4g	.	8gL	ら
.	.	.	.	8c	ん	.	.	8c	ん
4c	.	4f	.	8c	だ	4f	.	8c	だ
.	.	.	.	8e-J	み	.	.	8e-J	み
=20	=20	=20	=20	=20	=20	=20	=20	=20	=20
4d-	.	4r	.	8fL	ち	4r	.	8fL	ち
.	.	.	.	16e-L	は	.	.	16e-L	は
.	.	.	.	16d-JJ	.	.	.	16d-JJ	.
4d-	.	4f	woo	8d-L	こ	4a-	woo	8d-L	こ
.	.	.	.	16fL	こ	.	.	16fL	こ
.	.	.	.	16e-JJ	.	.	.	16e-JJ	.
4A-	.	4e-	.	8e-	で	4a-	.	8e-	で
.	.	.	.	8r	.	.	.	8r	.
4G	.	4c	.	8cL	よ	4e-	.	8cL	よ
.	.	.	.	8B-J	か	.	.	8B-J	か
=21	=21	=21	=21	=21	=21	=21	=21	=21	=21
4f	.	2d-	hu	8A-	っ	2a-	hu	8A-	っ
.	.	.	.	8r	.	.	.	8r	.
4f	.	.	.	4a-	た	.	.	4a-	た
4c	.	2e-	.	8gL	の	2b-	.	8gL	の
.	.	.	.	8cJ	か	.	.	8cJ	か
4c	.	.	.	8ccL	な	.	.	8ccL	な
.	.	.	.	16b-L	ん	.	.	16b-L	ん
.	.	.	.	16a-JJ	.	.	.	16a-JJ	.
=22	=22	=22	=22	=22	=22	=22	=22	=22	=22
8d-L	.	2d-	han	2.a-	て	4r	.	2.a-	て
8d-J	.	.	.	.	.	.	.	.	.
8d-L	.	.	.	.	.	2f	han	.	.
16.d-L	.	.	.	.	.	.	.	.	.
32d-JJk	.	.	.	.	.	.	.	.	.
8d-L	.	2a-	han	.	.	.	.	.	.
8d-	.	.	.	.	.	.	.	.	.
8d-	.	.	.	16.r	.	4cc	han	16.r	.
.	.	.	.	32gKLL	わ	.	.	32gKLL	わ
8d-J	.	.	.	16.g	か	.	.	16.g	か
.	.	.	.	32gJJk	ら	.	.	32gJJk	ら
=23	=23	=23	=23	=23	=23	=23	=23	=23	=23
4A-	.	2r	.	8a-L	な	2r	.	8a-L	な
.	.	.	.	8en	.	.	.	8en	.
8A-	.	.	.	8e	い	.	.	8e	い
4e-	.	.	.	8e-XJ	.	.	.	8e-XJ	.
.	.	4a-	wo	8e-L	け	4r	.	8e-L	け
4d-	.	.	.	8d-	.	.	.	8d-	.
.	.	4g	.	8d-J	ど	8r	.	8d-J	ど
8c	.	.	.	8r	.	16.e-LL	た	16.e-LL	た
.	.	.	.	.	.	32e-JJk	だ	32e-JJk	だ
=24	=24	=24	=24	=24	=24	=24	=24	=24	=24
4f	.	8A-L	ない	8fL	ない	8a-L	ない	8a-L	ない
.	.	8B-	て	8f	て	8b-	て	8b-	て
8e-L	.	8cJ	わ	8a-J	わ	8ccJ	わ	8ccJ	わ
8fJ	.	4d-	らっ	4a-	らっ	4f	らっ	4f	らっ
4d-	.	.	.	.	.	.	.	.	.
.	.	4A-	て	4a-	て	4a-	て	4a-	て
4d-	.	.	.	.	.	.	.	.	.
.	.	8c	す	8f	す	8a-	す	8a-	す
=25	=25	=25	=25	=25	=25	=25	=25	=25	=25
4e-	.	8B-L	ご	8e-L	ご	8gL	ご	8gL	ご
.	.	8cJ	す	8e-J	す	8a-J	す	8a-J	す
4e-	.	8B-L	ひ	8e-L	ひ	8gL	ひ	8gL	ひ
.	.	16.d-L	び	16.e-L	び	16.fL	び	16.fL	び
.	.	32d-JJk	に	32e-JJk	に	32fJJk	に	32fJJk	に
4A-	.	4c	.	4a-	.	4e-	.	4e-	.
4G	.	8r	.	8r	.	8r	.	8r	.
.	.	8c	と	8g	と	8e-	と	8e-	と
=26	=26	=26	=26	=26	=26	=26	=26	=26	=26
4f	.	8A-L	な	8fL	な	8a-L	な	8a-L	な
.	.	8B-	り	8f	り	8b-	り	8b-	り
8fL	.	8cJ	に	8a-J	に	8ccJ	に	8ccJ	に
16.e-L	.	4d-	たっ	4a-	たっ	4f	たっ	4f	たっ
32fJJk	.	.	.	.	.	.	.	.	.
4d-	.	.	.	.	.	.	.	.	.
.	.	4A-	て	4a-	て	4a-	て	4a-	て
4d-	.	.	.	.	.	.	.	.	.
.	.	8c	い	8f	い	8a-	い	8a-	い
=27	=27	=27	=27	=27	=27	=27	=27	=27	=27
4e-	.	8B-L	れ	8e-L	れ	8b-L	れ	8b-L	れ
.	.	8A-J	る	8e-J	る	8a-J	る	8a-J	る
4e-	.	8B-L	こ	8e-L	こ	8b-L	こ	8b-L	こ
.	.	16B-K	と	16e-K	と	16b-K	と	16b-K	と
.	.	8.cJ	で	8.a-J	で	8.cc	で	8.cc	で
4A-	.	.	.	.	.	.	.	.	.
.	.	4.r	.	8r	.	24b-L	.	24b-L	.
.	.	.	.	.	.	24cc	.	24cc	.
.	.	.	.	.	.	24b-JJ	.	24b-JJ	.
4G	.	.	.	8ccL	wo	8a-L	.	8a-L	.
.	.	.	.	24b-L	.	8e-J	ぼ	8e-J	ぼ
.	.	.	.	24cc	.	.	.	.	.
.	.	.	.	24b-JJ	.	.	.	.	.
=28	=28	=28	=28	=28	=28	=28	=28	=28	=28
4f	.	2f	woo	2a-	.	8a-L	く	8a-L	く
.	.	.	.	.	.	8b-	が	8b-	が
8fL	.	.	.	.	.	8ccJ	い	8ccJ	い
16.e-L	.	.	.	.	.	4f	き	4f	き
32fJJk	.	.	.	.	.	.	.	.	.
4d-	.	4r	.	8r	.	.	.	.	.
.	.	.	.	8a-L	woo	4a-	る	4a-	る
4d-	.	4f	woo	8dd-	.	.	.	.	.
.	.	.	.	8ccJ	.	8a-	い	8a-	い
=29	=29	=29	=29	=29	=29	=29	=29	=29	=29
4e-	.	4g	.	4b-	.	8gL	み	8gL	み
.	.	.	.	.	.	8a-J	に	8a-J	に
4e-	.	8r	.	8r	.	8gL	な	8gL	な
.	.	8g	い	8b-	い	16.fL	っ	16.fL	っ
.	.	.	.	.	.	32fJJk	て	32fJJk	て
4A-	.	8a-L	み	8ccL	み	4e-	.	4e-	.
.	.	8b-J	に	8dd-J	に	.	.	.	.
4G	.	8a-L	な	8ccL	な	8r	.	8r	.
.	.	16.gL	っ	16.b-L	っ	8e-	き	8e-	き
.	.	32gJJk	て	32b-JJk	て	.	.	.	.
=30	=30	=30	=30	=30	=30	=30	=30	=30	=30
4f	.	8f	.	8a-	.	8a-L	み	8a-L	み
.	.	8r	.	8r	.	8b-	に	8b-	に
8fL	.	4f	さ	4f	さ	8ccJ	さ	8ccJ	さ
16.e-L	.	.	.	.	.	4f	さ	4f	さ
32fJJk	.	.	.	.	.	.	.	.	.
4d-	.	4f	さ	4a-	さ	.	.	.	.
.	.	.	.	.	.	4a-	ぐ	4a-	ぐ
4d-	.	4f	ぐ	4cc	ぐ	.	.	.	.
.	.	.	.	.	.	16.a-LL	こ	16.a-LL	こ
.	.	.	.	.	.	32a-JJk	の	32a-JJk	の
=31	=31	=31	=31	=31	=31	=31	=31	=31	=31
4dn	.	8B-L	あ	8ddnL	あ	8b-L	あ	8b-L	あ
.	.	8B-J	い	8ddJ	い	8a-J	い	8a-J	い
4d	.	8B-L	の	8ddL	の	8gL	の	8gL	の
.	.	16B-K	う	16ddK	う	16b-K	う	16b-K	う
.	.	8B-J	た	8ddJ	た	8.b-J	た	8.b-J	た
4d	.	.	.	.	.	.	.	.	.
.	.	16r	.	16r	.	.	.	.	.
.	.	8B-	pa	8b-	pa	4.a-	.	4.a-	.
4r	.	8.r	.	16r	.	.	.	.	.
.	.	.	.	8f	pa	.	.	.	.
.	.	32r	.	16r	.	.	.	.	.
.	.	32e-	い	.	.	.	.	.	.
=32	=32	=32	=32	=32	=32	=32	=32	=32	=32
8d-L	.	16.fLL	つ	8r	.	8r	.	16.fLL	つ
.	.	32e-K	も	.	.	.	.	32e-K	も
8d-	.	16.f	め	16.fLL	pa	16.a-LL	pa	16.f	め
.	.	32e-JJk	い	32fJJk	pa	32a-JJk	pa	32e-JJk	い
8d-	.	16.fLL	わ	8r	.	8r	.	16.fLL	わ
.	.	32fK	く	.	.	.	.	32fK	く
8d-J	.	16.f	を	8f	pa	8a-	pa	16.f	を
.	.	32fJJk	か	.	.	.	.	32fJJk	か
8e-L	.	16.fLL	け	8r	.	8r	.	16.fLL	け
.	.	32gK	て	.	.	.	.	32gK	て
8e-	.	16.g	ゴ	16.gLL	pa	16.b-LL	pa	16.g	ゴ
.	.	32gJJk	メ	32gJJk	pa	32b-JJk	pa	32gJJk	メ
8e-	.	16.gLL	ン	8r	.	8r	.	16.gLL	ン
.	.	32gJJk	ネ	.	.	.	.	32gJJk	ネ
8e-J	.	16r	.	8g	pa	8b-	pa	16r	.
.	.	32r	.	.	.	.	.	32r	.
.	.	32e-	み	.	.	.	.	32e-	み
=33	=33	=33	=33	=33	=33	=33	=33	=33	=33
8cL	.	16.e-LL	つ	8r	.	8r	.	16.e-LL	つ
.	.	32cK	ど	.	.	.	.	32cK	ど
8c	.	16.e-	こ	16.e-LL	pa	16.gLL	pa	16.e-	こ
.	.	32cJJk	い	32e-JJk	pa	32gJJk	pa	32cJJk	い
8c	.	16.e-LL	じ	8r	.	8r	.	16.e-LL	じ
.	.	32e-K	か	.	.	.	.	32e-K	か
8cJ	.	16.e-	ん	8e-	pa	8g	pa	16.e-	ん
.	.	32e-JJk	を	.	.	.	.	32e-JJk	を
8fL	.	16.e-LL	す	8r	.	8r	.	16.e-LL	す
.	.	32fK	ご	.	.	.	.	32fK	ご
8f	.	16.f	し	16.fLL	pa	16.a-LL	pa	16.f	し
.	.	32fJJk	た	32fJJk	pa	32a-JJk	pa	32fJJk	た
8e-	.	8f	ね	8r	.	8r	.	8f	ね
8e-J	.	16r	.	8f	pa	8a-	pa	16r	.
.	.	32r	.	.	.	.	.	32r	.
.	.	32c	ぼ	.	.	.	.	32c	ぼ
=34	=34	=34	=34	=34	=34	=34	=34	=34	=34
8d-L	.	16.fLL	く	8r	.	8r	.	16.fLL	く
.	.	32fK	ら	.	.	.	.	32fK	ら
8d-	.	16.f	ふ	16.fLL	pa	16.a-LL	pa	16.f	ふ
.	.	32a-JJk	た	32fJJk	pa	32a-JJk	pa	32a-JJk	た
8d-	.	8g	り	8r	.	8r	.	8g	り
8d-J	.	16r	.	8f	pa	8a-	pa	16r	.
.	.	32r	.	.	.	.	.	32r	.
.	.	32c	ひ	.	.	.	.	32c	ひ
8e-L	.	16.fLL	び	8r	.	8r	.	16.fLL	び
.	.	32fK	を	.	.	.	.	32fK	を
8e-	.	16.f	き	16.gLL	pa	16.b-LL	pa	16.f	き
.	.	32a-JJk	ざ	32gJJk	pa	32b-JJk	pa	32a-JJk	ざ
8e-	.	8g	み	8r	.	8r	.	8g	み
8e-J	.	16r	.	8g	pa	8b-	pa	16r	.
.	.	32r	.	.	.	.	.	32r	.
.	.	32g	つ	.	.	.	.	32g	つ
=35	=35	=35	=35	=35	=35	=35	=35	=35	=35
8enL	.	16.gLL	く	8r	.	8r	.	16.gLL	く
.	.	32gK	り	.	.	.	.	32gK	り
8e	.	16.g	あ	16.gLL	pa	16.b-LL	pa	16.g	あ
.	.	32gJJk	げ	32gJJk	pa	32b-JJk	pa	32gJJk	げ
8e	.	16.ccLL	て	8r	.	8r	.	16.ccLL	て
.	.	32ccK	き	.	.	.	.	32ccK	き
8eJ	.	16.b-	た	8g	pa	8b-	pa	16.b-	た
.	.	32b-JJk	お	.	.	.	.	32b-JJk	お
8fL	.	16.a-LL	も	4r	.	8r	.	16.a-LL	も
.	.	32a-K	い	.	.	.	.	32a-K	い
8f	.	16.a-	つ	.	.	16.a-LL	pa	16.a-	つ
.	.	32b-JJk	の	.	.	32a-JJk	pa	32b-JJk	の
8f	.	8a-	り	8.r	.	8r	.	8a-	り
8fJ	.	8r	.	.	.	8a-	pa	8r	.
.	.	.	.	32r	.	.	.	.	.
.	.	.	.	32c	へ	.	.	.	.
=36	=36	=36	=36	=36	=36	=36	=36	=36	=36
8d-L	.	8r	.	16.ccLL	タ	8r	.	16.ccLL	タ
.	.	.	.	32ccK	ク	.	.	32ccK	ク
8d-	.	16.fLL	pa	16.a-	ソ	16.a-LL	pa	16.a-	ソ
.	.	32fJJk	pa	32a-JJk	な	32a-JJk	pa	32a-JJk	な
8d-	.	8r	.	16.a-LL	う	8r	.	16.a-LL	う
.	.	.	.	32a-K	た	.	.	32a-K	た
8d-J	.	8f	pa	16.f	を	8a-	pa	16.f	を
.	.	.	.	32e-JJk	き	.	.	32e-JJk	き
8e-L	.	8r	.	16.e-LL	み	8r	.	16.e-LL	み
.	.	.	.	32e-K	に	.	.	32e-K	に
8e-	.	16.gLL	pa	16.e-	お	16.b-LL	pa	16.e-	お
.	.	32gJJk	pa	32fJJk	く	32b-JJk	pa	32fJJk	く
8e-	.	8r	.	8e-	ろう	8r	.	8e-	ろう
8e-J	.	8g	pa	16r	.	8b-	pa	16r	.
.	.	.	.	32r	.	.	.	32r	.
.	.	.	.	32c	め	.	.	32c	め
=37	=37	=37	=37	=37	=37	=37	=37	=37	=37
8cL	.	8r	.	16.e-LL	ちゃ	8r	.	16.e-LL	ちゃ
.	.	.	.	32cK	く	.	.	32cK	く
8c	.	16.e-LL	pa	16.e-	ちゃ	16.gLL	pa	16.e-	ちゃ
.	.	32e-JJk	pa	32cJJk	す	32gJJk	pa	32cJJk	す
8c	.	8r	.	16.e-LL	き	8r	.	16.e-LL	き
.	.	.	.	32e-K	だ	.	.	32e-K	だ
8cJ	.	8e-	pa	16.e-	と	8g	pa	16.e-	と
.	.	.	.	32e-JJk	か	.	.	32e-JJk	か
8fL	.	8r	.	16.a-LL	み	8r	.	16.a-LL	み
.	.	.	.	32a-K	に	.	.	32a-K	に
8f	.	16.fLL	pa	16.a-	ち	16.a-LL	pa	16.a-	ち
.	.	32fJJk	pa	32b-JJk	か	32a-JJk	pa	32b-JJk	か
8e-	.	8r	.	8a-	おう	8r	.	8a-	おう
8e-J	.	8f	pa	16r	.	8a-	pa	16r	.
.	.	.	.	32r	.	.	.	32r	.
.	.	.	.	32f	こ	.	.	32f	こ
=38	=38	=38	=38	=38	=38	=38	=38	=38	=38
4d-	.	2.f	woo	8.a-L	れ	2.a-	woo	8.a-L	れ
.	.	.	.	16fJk	か	.	.	16fJk	か
4d-	.	.	.	8.a-L	ら	.	.	8.a-L	ら
.	.	.	.	16fJk	も	.	.	16fJk	も
4d-	.	.	.	8a-L	き	.	.	8a-L	き
.	.	.	.	16b-L	み	.	.	16b-L	み
.	.	.	.	16b-JJ	の	.	.	16b-JJ	の
4d-	.	4f	.	8a-	.	4r	.	8a-	.
.	.	.	.	16r	.	.	.	16r	.
.	.	.	.	32r	.	.	.	32r	.
.	.	.	.	32en	て	.	.	32en	て
=39	=39	=39	=39	=39	=39	=39	=39	=39	=39
4d-	.	2.en	.	8a-L	を	2.a-	woo	8a-L	を
.	.	.	.	8en	に	.	.	8en	に
4d-	.	.	.	8a-	ぎ	.	.	8a-	ぎ
.	.	.	.	8eJ	っ	.	.	8eJ	っ
4d-	.	.	.	8a-L	て	.	.	8a-L	て
.	.	.	.	16b-L	る	.	.	16b-L	る
.	.	.	.	[16b-JJ	よ	.	.	[16b-JJ	よ
8r	.	4r	.	16b-KL]	.	4r	.	16b-KL]	.
.	.	.	.	8.a-J	.	.	.	8.a-J	.
8e-	ぼ	.	.	.	.	.	.	.	.
=40	=40	=40	=40	=40	=40	=40	=40	=40	=40
8a-L	く	8f	tun	8r	.	4r	.	1r	.
8b-	の	8r	.	8a-	tun	.	.	.	.
8ccJ	こ	4r	.	4r	.	4cc	tun	.	.
4f	え	.	.	.	.	.	.	.	.
.	.	8d-	tun	8r	.	4r	.	.	.
4a-	が	8r	.	8f	tun	.	.	.	.
.	.	4r	.	4r	.	4a-	tun	.	.
8a-	つ	.	.	.	.	.	.	.	.
=41	=41	=41	=41	=41	=41	=41	=41	=41	=41
8gL	づ	8e-	tun	8r	.	4r	.	8a-L	く
8a-J	く	8r	.	8g	tun	.	.	8b-	の
8gL	か	4r	.	4r	.	4b-	tun	8ccJ	こ
16.fL	ぎ	.	.	.	.	.	.	4f	え
32fJJk	り	.	.	.	.	.	.	.	.
4e-	.	8A-	tun	8r	.	4r	.	.	.
.	.	8r	.	8c	tun	.	.	4a-	が
8r	.	4r	.	4r	.	4e-	tun	.	.
8e-	と	.	.	.	.	.	.	8a-	つ
=42	=42	=42	=42	=42	=42	=42	=42	=42	=42
8a-L	な	8f	tun	8r	.	4r	.	8gL	づ
8b-	り	8r	.	8a-	tun	.	.	8a-J	く
8ccJ	で	4r	.	4r	.	4cc	tun	8gL	か
4f	ずっ	.	.	.	.	.	.	16.fL	ぎ
.	.	.	.	.	.	.	.	32fJJk	り
.	.	8d-	tun	8r	.	4r	.	4e-	.
4a-	と	4r	.	8f	tun	.	.	.	.
.	.	.	.	8r	.	4a-	tun	8r	.
8a-	あ	8A-	あ	8a-	あ	.	.	8e-	と
=43	=43	=43	=43	=43	=43	=43	=43	=43	=43
8b-L	い	8B-L	い	8b-L	い	2.r	.	8a-L	な
8a-	を	8A-	を	8a-	を	.	.	8b-	り
8b-J	う	8B-J	う	8gJ	う	.	.	8ccJ	で
4cc	た	4c	た	4a-	た	.	.	4f	ずっ
8b-L	う	8B-L	う	8gL	う	.	.	4a-	と
8a-J	よ	8A-J	よ	8fJ	よ	8r	.	.	.
8r	.	8r	.	8r	.	8e-	と	8a-	あ
=44	=44	=44	=44	=44	=44	=44	=44	=44	=44
4f	.	2a-	wo	2cc	wo	8a-L	し	8b-L	い
.	.	.	.	.	.	8b-	を	8a-	を
8e-L	.	.	.	.	.	8ccJ	と	8b-J	う
8fJ	.	.	.	.	.	4f	っ	4cc	た
4d-	.	2a-	.	2ee-	.	.	.	.	.
.	.	.	.	.	.	4a-	て	8b-L	う
4d-	.	.	.	.	.	.	.	8a-J	よ
.	.	.	.	.	.	8a-	こ	8r	.
=45	=45	=45	=45	=45	=45	=45	=45	=45	=45
4e-	.	4g	.	4b-	.	8gL	え	8gL	え
.	.	.	.	.	.	8a-J	が	8a-J	が
4e-	.	8r	.	8r	.	8gL	か	8gL	か
.	.	8g	こ	8b-	こ	16.fL	れ	16.fL	れ
.	.	.	.	.	.	32fJJk	て	32fJJk	て
4A-	.	8a-L	え	8ccL	え	4e-	.	4e-	.
.	.	8b-J	が	8dd-J	が	.	.	.	.
16r	.	8a-L	か	8ccL	か	8r	.	8r	.
8.G	.	.	.	.	.	.	.	.	.
.	.	16.gL	れ	16.b-L	れ	8e-	き	8e-	き
.	.	32gJJk	て	32b-JJk	て	.	.	.	.
=46	=46	=46	=46	=46	=46	=46	=46	=46	=46
4f	.	2a-	.	2cc	.	8a-L	た	8a-L	た
.	.	.	.	.	.	8b-	ら	8b-	ら
4f	.	.	.	.	.	8ccJ	ず	8ccJ	ず
.	.	.	.	.	.	4f	っ	4f	っ
4e-	.	4e-	hu	4a-	hu	.	.	.	.
.	.	.	.	.	.	4a-	と	4a-	と
4e-	.	8r	.	8r	.	.	.	.	.
.	.	8e-	て	8cc	て	8a-	て	8a-	て
=47	=47	=47	=47	=47	=47	=47	=47	=47	=47
4dn	.	8fL	を	8ddnL	を	8b-L	を	8b-L	を
.	.	8fJ	に	8ddJ	に	8a-J	に	8a-J	に
4d	.	8fL	ぎ	8ddL	ぎ	8gL	ぎ	8gL	ぎ
.	.	16fL	る	16ddL	る	16b-L	る	16b-L	る
.	.	[16fJJ	よ	[16ddJJ	よ	[16b-JJ	よ	[16b-JJ	よ
4d	.	8f]	.	8dd]	.	8b-L]	.	8b-L]	.
.	.	8r	.	8r	.	8a-J	.	8a-J	.
8r	.	4e-	ha	4ee-	ha	8r	.	8r	.
8e-	.	.	.	.	.	16.e-LL	た	16.e-LL	た
.	.	.	.	.	.	32e-JJk	だ	32e-JJk	だ
=48	=48	=48	=48	=48	=48	=48	=48	=48	=48
4f	.	2a-	wo	2cc	wo	8a-L	ア	8a-L	ア
.	.	.	.	.	.	8b-	リ	8b-	リ
8fL	.	.	.	.	.	8ccJ	ガ	8ccJ	ガ
16.e-L	.	.	.	.	.	4f	トウ	4f	トウ
32fJJk	.	.	.	.	.	.	.	.	.
4d-	.	2a-	.	2ee-	.	.	.	.	.
.	.	.	.	.	.	4a-	じゃ	4a-	じゃ
4d-	.	.	.	.	.	.	.	.	.
.	.	.	.	.	.	8a-	つ	8a-	つ
=49	=49	=49	=49	=49	=49	=49	=49	=49	=49
8e-L	.	4g	.	4b-	.	8gL	た	8gL	た
8e-	.	.	.	.	.	8a-J	え	8a-J	え
8e-	.	8r	.	8r	.	8gL	き	8gL	き
8e-J	.	8g	つ	8b-	つ	16.fL	れ	16.fL	れ
.	.	.	.	.	.	32fJJk	な	32fJJk	な
4A-	.	8a-L	た	8ccL	た	4e-	い	4e-	い
.	.	8b-J	え	8dd-J	え	.	.	.	.
4G	.	8a-L	き	8ccL	き	8.r	.	8.r	.
.	.	16.gL	れ	16.b-L	れ	.	.	.	.
.	.	.	.	.	.	16e-	「な	16e-	「な
.	.	32gJJk	な	32b-JJk	な	.	.	.	.
=50	=50	=50	=50	=50	=50	=50	=50	=50	=50
8fL	.	2.f	い	2.a-	い	16.a-LL	き」	16.a-LL	き」
.	.	.	.	.	.	32fK	「わ	32fK	「わ
8f	.	.	.	.	.	16.a-	ら	16.a-	ら
.	.	.	.	.	.	32fJJk	い」	32fJJk	い」
8e-	.	.	.	.	.	16.a-LL	「か	16.a-LL	「か
.	.	.	.	.	.	32a-K	な	32a-K	な
8fJ	.	.	.	.	.	16.a-	し	16.a-	し
.	.	.	.	.	.	32a-JJk	み」	32a-JJk	み」
4d-	.	.	.	.	.	16.a-LL	「よ	16.a-LL	「よ
.	.	.	.	.	.	32a-K	ろ	32a-K	ろ
.	.	.	.	.	.	16.a-	こ	16.a-	こ
.	.	.	.	.	.	32b-JJk	び」	32b-JJk	び」
4d-	.	4r	.	4r	.	8a-	を	8a-	を
.	.	.	.	.	.	8r	.	8r	.
=51	=51	=51	=51	=51	=51	=51	=51	=51	=51
4e-	.	2.a-	woo	2.a-	woo	16.a-LL	と	16.a-LL	と
.	.	.	.	.	.	32fK	も	32fK	も
.	.	.	.	.	.	16.a-	に	16.a-	に
.	.	.	.	.	.	32fJJk	わ	32fJJk	わ
4G	.	.	.	.	.	16.a-LL	か	16.a-LL	か
.	.	.	.	.	.	32a-K	ち	32a-K	ち
.	.	.	.	.	.	16.a-	あい	16.a-	あい
.	.	.	.	.	.	32a-JJk	い	32a-JJk	い
4A-	.	.	.	.	.	16.a-LL	き	16.a-LL	き
.	.	.	.	.	.	32a-K	て	32a-K	て
.	.	.	.	.	.	16.a-	い	16.a-	い
.	.	.	.	.	.	32b-JJk	こ	32b-JJk	こ
4G	.	4g	ru	8ccL	ru	8a-	う	8a-	う
.	.	.	.	8b-J	ru	8r	.	8r	.
=52	=52	=52	=52	=52	=52	=52	=52	=52	=52
4f	.	4a-	ru	8ccL	ru	8a-L	い	8a-L	い
.	.	.	.	8ee-J	ru	8b-	く	8b-	く
8e-L	.	4cc	ru	2.a-	ru	8ccJ	つ	8ccJ	つ
8fJ	.	.	.	.	.	4f	も	4f	も
4d-	.	2f	ru	.	.	.	.	.	.
.	.	.	.	.	.	4a-	の	4a-	の
4d-	.	.	.	.	.	.	.	.	.
.	.	.	.	.	.	8a-	よ	8a-	よ
=53	=53	=53	=53	=53	=53	=53	=53	=53	=53
4e-	.	4e-	ru	4g	ru	8gL	る	8gL	る
.	.	.	.	.	.	8a-J	を	8a-J	を
4e-	.	8r	.	8r	.	8gL	こ	8gL	こ
.	.	8g	よ	8b-	よ	16.fL	え	16.fL	え
.	.	.	.	.	.	32fJJk	て	32fJJk	て
4A-	.	8a-L	る	8ccL	る	8e-	.	8e-	.
.	.	8b-J	を	8dd-J	を	8r	.	8r	.
4G	.	8a-L	こ	8ccL	こ	8ccL	ぼ	8ccL	ぼ
.	.	16.gL	え	16.b-L	え	16.b-L	く	16.b-L	く
.	.	32gJJk	て	32b-JJk	て	32b-JJk	は	32b-JJk	は
=54	=54	=54	=54	=54	=54	=54	=54	=54	=54
8fL	.	2f	.	2a-	.	8a-	.	8a-	.
8f	.	.	.	.	.	8r	.	8r	.
8f	.	.	.	.	.	8ccL	き	8ccL	き
8fJ	.	.	.	.	.	16.b-L	み	16.b-L	み
.	.	.	.	.	.	32b-JJk	と	32b-JJk	と
8e-L	.	4r	.	2a-	woo	8a-	.	8a-	.
8e-	.	.	.	.	.	8r	.	8r	.
8e-	.	8r	.	.	.	8r	.	8r	.
8e-J	.	8A-	あ	.	.	8a-	あ	8a-	あ
=55	=55	=55	=55	=55	=55	=55	=55	=55	=55
4dn	.	8B-L	い	2r	.	8b-L	い	8b-L	い
.	.	8A-J	を	.	.	8a-J	を	8a-J	を
4d	.	8GL	う	.	.	8gL	う	8gL	う
.	.	16B-L	た	.	.	16b-L	た	16b-L	た
.	.	[16B-JJ	お	.	.	[16b-JJ	お	[16b-JJ	お
4d	.	8B-L]	.	4r	.	8b-]	.	8b-]	.
.	.	8A-J	う	.	.	4.a-	う	4.a-	う
8r	.	8r	.	8r	.	.	.	.	.
8e-	.	8e-	ru	8e-	ru	.	.	.	.
=56	=56	=56	=56	=56	=56	=56	=56	=56	=56
2f	.	8a-L	ru	8a-L	ru	2cc	ru	1r	.
.	.	8g	ru	8b-	ru	.	.	.	.
.	.	8fJ	ru	8ccJ	ru	.	.	.	.
.	.	4e-	ru	4f	ru	.	.	.	.
2c	.	.	.	.	.	2cc	ru	.	.
.	.	8e-L	ru	4a-	ru	.	.	.	.
.	.	8c	ru	.	.	.	.	.	.
.	.	[8e-J	ru	8a-	ru	.	.	.	.
=57	=57	=57	=57	=57	=57	=57	=57	=57	=57
2d-	.	8e-L]	.	8gL	ru	2a-	ru	1r	.
.	.	8f	ru	8a-	ru	.	.	.	.
.	.	8e-	ru	8g	ru	.	.	.	.
.	.	8d-J	ru	8fJ	ru	.	.	.	.
8A-L	.	4c	ru	4e-	ru	8ccL	ru	.	.
8B-	.	.	.	.	.	8dd-	ru	.	.
8A-	.	8r	.	8r	.	8cc	ru	.	.
8GJ	.	8e-	ru	8e-	ru	8b-J	ru	.	.
=58	=58	=58	=58	=58	=58	=58	=58	=58	=58
2f	.	8a-L	ru	8a-L	ru	2cc	ru	1r	.
.	.	8g	ru	8b-	ru	.	.	.	.
.	.	8fJ	ru	8ccJ	ru	.	.	.	.
.	.	4e-	ru	4f	ru	.	.	.	.
2c	.	.	.	.	.	2cc	ru	.	.
.	.	8e-L	ru	4a-	ru	.	.	.	.
.	.	8c	ru	.	.	.	.	.	.
.	.	8e-J	ru	8a-	ru	.	.	.	.
=59	=59	=59	=59	=59	=59	=59	=59	=59	=59
4d-	.	4f	ru	8b-L	ru	4a-	ru	1r	.
.	.	.	.	8a-	ru	.	.	.	.
4e-	.	4g	ru	8g	ru	8ee-L	ru	.	.
.	.	.	.	8b-J	ru	8dd-J	ru	.	.
[2A-	.	[2e-	ru	[2a-	ru	[2cc	ru	.	.
=60	=60	=60	=60	=60	=60	=60	=60	=60	=60
2A-]	.	2e-]	.	2a-]	.	2cc]	.	1r	.
2r	.	2r	.	2r	.	2r	.	.	.
==	==	==	==	==	==	==	==	==	==
*-	*-	*-	*-	*-	*-	*-	*-	*-	*-
